exported-svg/corner-up-right.svg

<svg height="24" viewBox="0 0 24 24" width="24" xmlns="http://www.w3.org/2000/svg"><path d="m19.2928932 10h-10.7928932c-1.93299662 0-3.5 1.5670034-3.5 3.5v7c0 .2761424-.22385763.5-.5.5s-.5-.2238576-.5-.5v-7c0-2.4852814 2.01471863-4.5 4.5-4.5h10.7928932l-4.1464466-4.14644661c-.1952621-.19526215-.1952621-.51184463 0-.70710678.1952622-.19526215.5118446-.19526215.7071068 0l5 5c.1952621.19526215.1952621.51184463 0 .70710678l-5 5.00000001c-.1952622.1952621-.5118446.1952621-.7071068 0-.1952621-.1952622-.1952621-.5118446 0-.7071068z"/></svg>

<?xml version="1.0" encoding="UTF-8"?>
<svg width="24px" height="24px" viewBox="0 0 24 24" version="1.1" xmlns="http://www.w3.org/2000/svg" xmlns:xlink="http://www.w3.org/1999/xlink">
    <!-- Generator: Sketch 55.2 (78181) - https://sketchapp.com -->
    <title>corner-up-right</title>
    <desc>Created with Sketch.</desc>
    <g id="corner-up-right" stroke="none" stroke-width="1" fill="none" fill-rule="evenodd">
        <path d="M19.2928932,10 L8.5,10 C6.56700338,10 5,11.5670034 5,13.5 L5,20.5 C5,20.7761424 4.77614237,21 4.5,21 C4.22385763,21 4,20.7761424 4,20.5 L4,13.5 C4,11.0147186 6.01471863,9 8.5,9 L19.2928932,9 L15.1464466,4.85355339 C14.9511845,4.65829124 14.9511845,4.34170876 15.1464466,4.14644661 C15.3417088,3.95118446 15.6582912,3.95118446 15.8535534,4.14644661 L20.8535534,9.14644661 C21.0488155,9.34170876 21.0488155,9.65829124 20.8535534,9.85355339 L15.8535534,14.8535534 C15.6582912,15.0488155 15.3417088,15.0488155 15.1464466,14.8535534 C14.9511845,14.6582912 14.9511845,14.3417088 15.1464466,14.1464466 L19.2928932,10 Z" id="Combined-Shape" fill="#000000" fill-rule="nonzero"></path>
    </g>
</svg>
